X:47
T:Frejus(?) Waltz. RHu.047
S:R.Hughes MS,1823,Whitchurch,Shrops.
A:Whitchurch, Shropshire
Z:Neil Brookes 2006
M:3/8
L:1/8
Q:3/8=50
R:Waltz
K:F
a2g|f2f/a/|g/a/e/g/f/a/|c3|\
a2g|f2f/a/|a/g/b/g/e/g/|f2z::!
f2f/a/|g/b/e/g/f/a/|g/b/e/g/f/a/|g/b/e/g/f/a/|\
c3|a2g|f2f/a/|a/g/b/g/e/g/|f2z:|

